X:19011
T:Shepherd's Hey
R:Reel
C:Trad. Morris Dance
O:England
M:4/4
L:1/8
Q:1/4=120
K:D
"D"f3/2g/ a3/2f/ "G"g2 g2|"D"f3/2g/ a3/2f/ ("A7"e2e2)|"D"f3/2g/ a3/2f/ "G"g2 f3/2g/|1"A7"a2 A2 "D"d4:|2"A7"a2 A2 "D"d2d>e|:
"D"f2 d2 "D"g4|"D"f2 d2 "A7"e4|"D"f3/2g/ a3/2f/ "G"g2 f3/2g/|"A7"a2 A2 "D"d4:|
